src/images/Icons/LightBlue/Email.svg

<svg width="24" height="24" viewBox="0 0 24 24" fill="none" xmlns="http://www.w3.org/2000/svg">
<path opacity="0.4" d="M22 15.94C22 18.73 19.76 20.99 16.97 21H16.96H7.05C4.27 21 2 18.75 2 15.96V15.95C2 15.95 2.006 11.524 2.014 9.298C2.015 8.88 2.495 8.646 2.822 8.906C5.198 10.791 9.447 14.228 9.5 14.273C10.21 14.842 11.11 15.163 12.03 15.163C12.95 15.163 13.85 14.842 14.56 14.262C14.613 14.227 18.767 10.893 21.179 8.977C21.507 8.716 21.989 8.95 21.99 9.367C22 11.576 22 15.94 22 15.94Z" fill="#9FB1DC"/>
<path d="M21.4759 5.67351C20.6099 4.04151 18.9059 2.99951 17.0299 2.99951H7.04988C5.17388 2.99951 3.46988 4.04151 2.60388 5.67351C2.40988 6.03851 2.50188 6.49351 2.82488 6.75151L10.2499 12.6905C10.7699 13.1105 11.3999 13.3195 12.0299 13.3195C12.0339 13.3195 12.0369 13.3195 12.0399 13.3195C12.0429 13.3195 12.0469 13.3195 12.0499 13.3195C12.6799 13.3195 13.3099 13.1105 13.8299 12.6905L21.2549 6.75151C21.5779 6.49351 21.6699 6.03851 21.4759 5.67351Z" fill="#9FB1DC"/>
</svg>

<svg fill="none" height="24" viewBox="0 0 24 24" width="24" xmlns="http://www.w3.org/2000/svg"><g fill="#9fb1dc"><path d="m22 15.94c0 2.79-2.24 5.05-5.03 5.06h-.01-9.91c-2.78 0-5.05-2.25-5.05-5.04v-.01s.006-4.426.014-6.652c.001-.418.481-.652.808-.392 2.376 1.885 6.625 5.322 6.678 5.367.71.569 1.61.89 2.53.89s1.82-.321 2.53-.901c.053-.035 4.207-3.369 6.619-5.285.328-.261.81-.027.811.39.01 2.209.01 6.573.01 6.573z" opacity=".4"/><path d="m21.4759 5.67351c-.866-1.632-2.57-2.674-4.446-2.674h-9.98002c-1.876 0-3.58 1.042-4.446 2.674-.194.365-.102.82.221 1.078l7.42502 5.93899c.52.42 1.15.629 1.78.629h.01.01c.63 0 1.26-.209 1.78-.629l7.425-5.93899c.323-.258.415-.713.221-1.078z"/></g></svg>
